X:3318
T:Kitty Jones
O:england
M:4/4
L:1/8
S:Father Chalie's self titled cassette
R:Reel
N:transposed by m euritt
K:G
dc|BGG2 DGG2 |BcdB G2AB |cAA2 DAA2|cBcd edcA|
BGG2 DGG2 |BcdB G2Bc |ecdB cABG |FDEFG2:|
AB|Bdd2 Bdd2|BddB G2AB|cee2 cee2|ceecA3B|
(3BAG) dGeGdG|BcdB G Bc|ecdB cABG |FDEFG2:|


